svg/car_defrost_rear.svg

<svg xmlns="http://www.w3.org/2000/svg" viewBox="0 0 24 24"><path d="M10 18.3c0 2.2-2.1 4.2-2.3 4.4s-.5.3-.7.3c-.3 0-.5-.1-.8-.4-.3-.4-.3-1 .1-1.4.5-.4 1.7-1.8 1.7-2.9 0-.6-.4-1.2-.8-1.9-.6-.8-1.2-1.8-1.2-3 0-2.3 1.3-3.2 1.5-3.3.4-.2 1.1-.1 1.3.3.3.5.2 1.1-.3 1.4 0 0-.5.4-.5 1.6 0 .7.4 1.3.8 1.9.6.8 1.2 1.8 1.2 3m2-4.9c0-1.2.5-1.6.5-1.6.5-.3.6-.9.3-1.4s-.9-.6-1.4-.3c-.2.1-1.5 1-1.5 3.3 0 1.2.6 2.2 1.2 3 .4.7.8 1.3.8 1.9 0 1.1-1.2 2.5-1.7 2.9-.4.4-.4 1-.1 1.4.2.2.5.3.7.3.4.1.7 0 .9-.2s2.3-2.2 2.3-4.4c0-1.2-.6-2.2-1.2-3-.4-.7-.8-1.3-.8-1.9M20 3H4a2 2 0 0 0-2 2v11a2 2 0 0 0 2 2h1v-2H4V5h16v11h-1v2h1a2 2 0 0 0 2-2V5a2 2 0 0 0-2-2m-3.8 10.5c0-1.2.5-1.6.5-1.6.4-.3.6-.9.3-1.4-.3-.4-.9-.6-1.4-.3-.2.1-1.5 1-1.5 3.3 0 1.2.7 2.2 1.2 3 .4.7.8 1.3.8 1.9 0 1.1-1.2 2.5-1.7 2.9-.4.4-.5 1-.1 1.4.2.2.4.3.7.3.2 0 .5-.1.9-.2.2-.2 2.3-2.2 2.3-4.4 0-1.2-.7-2.2-1.2-3-.4-.7-.8-1.3-.8-1.9"/></svg>

<?xml version="1.0" encoding="UTF-8"?><!DOCTYPE svg PUBLIC "-//W3C//DTD SVG 1.1//EN" "http://www.w3.org/Graphics/SVG/1.1/DTD/svg11.dtd"><svg xmlns="http://www.w3.org/2000/svg" xmlns:xlink="http://www.w3.org/1999/xlink" version="1.1" id="mdi-car-defrost-rear" width="24" height="24" viewBox="0 0 24 24"><path d="M10,18.3C10,20.5 7.9,22.5 7.7,22.7C7.5,22.9 7.2,23 7,23C6.7,23 6.5,22.9 6.2,22.6C5.9,22.2 5.9,21.6 6.3,21.2C6.8,20.8 8,19.4 8,18.3C8,17.7 7.6,17.1 7.2,16.4C6.6,15.6 6,14.6 6,13.4C6,11.1 7.3,10.2 7.5,10.1C7.9,9.9 8.6,10 8.8,10.4C9.1,10.9 9,11.5 8.5,11.8C8.5,11.8 8,12.2 8,13.4C8,14.1 8.4,14.7 8.8,15.3C9.4,16.1 10,17.1 10,18.3M12,13.4C12,12.2 12.5,11.8 12.5,11.8C13,11.5 13.1,10.9 12.8,10.4C12.5,9.9 11.9,9.8 11.4,10.1C11.2,10.2 9.9,11.1 9.9,13.4C9.9,14.6 10.5,15.6 11.1,16.4C11.5,17.1 11.9,17.7 11.9,18.3C11.9,19.4 10.7,20.8 10.2,21.2C9.8,21.6 9.8,22.2 10.1,22.6C10.3,22.8 10.6,22.9 10.8,22.9C11.2,23 11.5,22.9 11.7,22.7C11.9,22.5 14,20.5 14,18.3C14,17.1 13.4,16.1 12.8,15.3C12.4,14.6 12,14 12,13.4M20,3H4A2,2 0 0,0 2,5V16A2,2 0 0,0 4,18H5V16H4V5H20V16H19V18H20A2,2 0 0,0 22,16V5A2,2 0 0,0 20,3M16.2,13.5C16.2,12.3 16.7,11.9 16.7,11.9C17.1,11.6 17.3,11 17,10.5C16.7,10.1 16.1,9.9 15.6,10.2C15.4,10.3 14.1,11.2 14.1,13.5C14.1,14.7 14.8,15.7 15.3,16.5C15.7,17.2 16.1,17.8 16.1,18.4C16.1,19.5 14.9,20.9 14.4,21.3C14,21.7 13.9,22.3 14.3,22.7C14.5,22.9 14.7,23 15,23C15.2,23 15.5,22.9 15.9,22.8C16.1,22.6 18.2,20.6 18.2,18.4C18.2,17.2 17.5,16.2 17,15.4C16.6,14.7 16.2,14.1 16.2,13.5Z" /></svg>
